X: 1
T: McCail's
M: 4/4
L: 1/8
R: reel
K: Dmaj
|:Addc A3 B|=cAG=F E=C=CE|Dd d2 dfeg|feAG FD D2|
ecce dB=cB|A=cG=F E=F=FE|Dddc dfeg|fdAG FDDB:|
d2 fd adfd|=c2 e=c g=ce=c|d2 fd adfd|eaag edde|
a3 A (3Bcd ef|g2 Bg g2 fg|afge fdef|eaaf edde|
AddB =c2 =cB|d3 f adfd|=c3 e gde=c|eaag edde|
a3 A (3Bcd ef|g2 Bg g2 fg|afge fdef|eaag eddc||
